priv/static/svgs/icons_new/generic-edit.svg

<svg width="32" height="32" viewBox="0 0 32 32" fill="none" xmlns="http://www.w3.org/2000/svg">
<path d="M11.6154 25.5H6.5L6.5 20.3747L17.0962 9.75803M11.6154 25.5L25.5 25.5M11.6154 25.5L22.2115 14.8833M17.0962 9.75803L19.2885 7.56148C20.701 6.14616 22.9913 6.14617 24.4038 7.56148C25.8164 8.97679 25.8164 11.2715 24.4038 12.6868L22.2115 14.8833M17.0962 9.75803L22.2115 14.8833" stroke="black" stroke-linecap="round" stroke-linejoin="round"/>
</svg>

<svg width="32" height="32" viewBox="0 0 32 32" fill="none" xmlns="http://www.w3.org/2000/svg">
  <symbol id="item" viewBox="0 0 32 32" stroke-width="1" fill="none">
    <path d="M11.615 25.5H6.5v-5.125L17.096 9.758M11.616 25.5H25.5m-13.885 0 10.597-10.617m-5.116-5.125 2.192-2.197a3.612 3.612 0 0 1 5.116 0 3.63 3.63 0 0 1 0 5.126l-2.192 2.196m-5.116-5.125 5.116 5.125" stroke="currentColor" stroke-linecap="round" stroke-linejoin="round"/>
  </symbol>
</svg>
